packages/katcn/src/icons/svg/pipette-solid.svg

<svg width="24" height="25" viewBox="0 0 24 25" fill="none" xmlns="http://www.w3.org/2000/svg">
<path d="M21.8 8.66802C22.5 7.96802 23 6.96802 23 5.86802C23 4.76802 22.7 3.76802 21.9 3.06802C21.2 2.26802 20.2 1.96802 19.1 1.96802C18.1 1.96802 17 2.46802 16.3 3.26802L13.3 6.26802L12.8 5.76802C12.4 5.36802 11.8 5.36802 11.4 5.76802C11 6.16802 11 6.76802 11.4 7.16802L11.9 7.66802L12.6 8.36802L13.3 9.06802L16 11.668L16.7 12.368L17.4 13.068L17.9 13.568C18.1 13.768 18.4 13.868 18.6 13.868C18.8 13.868 19.1 13.768 19.3 13.568C19.7 13.168 19.7 12.568 19.3 12.168L18.8 11.668L21.8 8.66802Z" fill="black"/>
<path d="M14.6 13.068L12 10.468L11.3 9.76802L10.5 9.06802L3.9 15.668C3 16.568 2.2 17.668 1.7 18.868C1.2 20.068 1 21.368 1 22.568C1 22.968 1.2 23.268 1.4 23.568C1.7 23.868 2 23.968 2.4 23.968H2.6C3.8 23.968 5 23.668 6.2 23.268C7.4 22.768 8.5 22.068 9.4 21.068L16 14.468L15.3 13.768L14.6 13.068Z" fill="black"/>
</svg>

<svg xmlns="http://www.w3.org/2000/svg" fill="none" viewBox="0 0 24 25"><path fill="#000" d="M21.8 8.668c.7-.7 1.2-1.7 1.2-2.8s-.3-2.1-1.1-2.8c-.7-.8-1.7-1.1-2.8-1.1-1 0-2.1.5-2.8 1.3l-3 3-.5-.5c-.4-.4-1-.4-1.4 0s-.4 1 0 1.4l.5.5.7.7.7.7 2.7 2.6.7.7.7.7.5.5c.2.2.5.3.7.3s.5-.1.7-.3c.4-.4.4-1 0-1.4l-.5-.5zm-7.2 4.4-2.6-2.6-.7-.7-.8-.7-6.6 6.6c-.9.9-1.7 2-2.2 3.2s-.7 2.5-.7 3.7c0 .4.2.7.4 1 .3.3.6.4 1 .4h.2c1.2 0 2.4-.3 3.6-.7 1.2-.5 2.3-1.2 3.2-2.2l6.6-6.6-.7-.7z"/></svg>
